!!!!SEGMENT: Snf0113-Descendi_in_hortum_nucum_I.krn
!!!id: Snf0113
!!!AGN: Motet
!!!voices: 4
!!!COM: Ludwig Senfl
!!!OTL: Descendi in hortum nucum I
**kern	**text	**kern	**text	**kern	**text	**kern	**text
*part4	*part4	*part3	*part3	*part2	*part2	*part1	*part1
*staff4	*staff4	*staff3	*staff3	*staff2	*staff2	*staff1	*staff1
*I"Bassus	*	*I"Tenor	*	*I"Altus	*	*I"Superius	*
*I'B	*	*I'T	*	*I'A	*	*I'S	*
*clefF4	*	*clefGv2	*	*clefGv2	*	*clefG2	*
*k[b-]	*	*k[b-]	*	*k[b-]	*	*k[b-]	*
*F:	*	*F:	*	*F:	*	*F:	*
*M2/1	*	*M2/1	*	*M2/1	*	*M2/1	*
*met(C|)	*	*met(C|)	*	*met(C|)	*	*met(C|)	*
!!section: Prima pars: Descendi in hortum nucum
!!!OMD: Prima pars: Descendi in hortum nucum
1r	.	0F	De-	1c	De-	1cc	De-
1F	De-	.	.	2.c	-scen-	[1cc	-scen-
.	.	.	.	4A	.	.	.
=1	=1	=1	=1	=1	=1	=1	=1
1.F	-scen-	0A	-scen-	2A	.	2cc]	.
.	.	.	.	2F	.	2a	.
.	.	.	.	1F	-di,	2a	.
2D	.	.	.	.	.	2f	.
=2	=2	=2	=2	=2	=2	=2	=2
2D	.	0B-y	.	1r	.	1f	-di,
2BB-y	.	.	.	.	.	.	.
1BB-y	-di,	.	.	2r	.	1r	.
.	.	.	.	2F	de-	.	.
=3	=3	=3	=3	=3	=3	=3	=3
1F	de-	0c	-di	2.A	-scen-	2r	.
.	.	.	.	.	.	2cc	de-
.	.	.	.	4B-y	.	.	.
[1F	-scen-	.	.	2c	.	1cc	-scen-
.	.	.	.	2A	.	.	.
=4	=4	=4	=4	=4	=4	=4	=4
2F]	.	0d	in	2A	.	2a	.
2D	.	.	.	2F	.	1a	.
[1D	.	.	.	2F	-di,	.	.
.	.	.	.	2f	de-	2f	.
=5	=5	=5	=5	=5	=5	=5	=5
2D]	.	0f	hor-	2f	-scen-	1f	-di,
2BB-y	.	.	.	2d	.	.	.
1BB-y	-di,	.	.	2d	.	2r	.
.	.	.	.	2B-y	-di,	2b-y	de-
=6	=6	=6	=6	=6	=6	=6	=6
1F	[de-	0c	-tum	2c	de-	2a	-scen-
.	.	.	.	2c	-scen-	2f	-di,
[1F	-scen-	.	.	2A	.	1ff	de-
.	.	.	.	[2A	.	.	.
=7	=7	=7	=7	=7	=7	=7	=7
2F]	.	[0d	nu-	2A]	.	1.ff	-scen-
2D	.	.	.	2F	.	.	.
2D	.	.	.	1F	-di	.	.
2BB-y	.	.	.	.	.	2dd	.
=8	=8	=8	=8	=8	=8	=8	=8
2BB-y	-di,]	0d]	.	1r	.	2dd	.
2BB-y	de-	.	.	.	.	2b-y	.
2.D	-scen-	.	.	2r	.	2b-y	-di
.	.	.	.	2F	in	2a	in
4E	.	.	.	.	.	.	.
=9	=9	=9	=9	=9	=9	=9	=9
0F	-di	0c	-cum	2.A	hor-	2f	.
.	.	.	.	.	.	2.a	hor-
.	.	.	.	4B-y	.	.	.
.	.	.	.	4c	.	.	.
.	.	.	.	4F	.	4b-y	.
.	.	.	.	2f	.	2cc	.
=10	=10	=10	=10	=10	=10	=10	=10
1G	in	0r	.	2d	.	4b-y	.
.	.	.	.	.	.	4g	.
.	.	.	.	1g	.	1b-y	.
[1B-y	hor-	.	.	.	.	.	.
.	.	.	.	4f	.	4a	.
.	.	.	.	4e	.	4g	.
=11	=11	=11	=11	=11	=11	=11	=11
1B-]	.	0r	.	2.d	.	2.f	.
.	.	.	.	4e	.	4g	.
1F	-tum	.	.	1f	.	1a	.
=12	=12	=12	=12	=12	=12	=12	=12
0G	nu-	0B-y	ut	2e	.	2g	.
.	.	.	.	1d	-tum	1f	-tum
.	.	.	.	4c	.	2e	.
.	.	.	.	4B-y	.	.	.
=13	=13	=13	=13	=13	=13	=13	=13
0F	-cum	0A	.	2d	.	2.f	nu-
.	.	.	.	2c	nu-	.	.
.	.	.	.	.	.	4g	.
.	.	.	.	1f	.	4a	.
.	.	.	.	.	.	4g	.
.	.	.	.	.	.	4a	.
.	.	.	.	.	.	4b-y	.
=14	=14	=14	=14	=14	=14	=14	=14
1C	ut	0G	vi-	1e	-cum	1cc	-cum
1E	vi-	.	.	1g	.	1cc	ut
=15	=15	=15	=15	=15	=15	=15	=15
0D	-de-	1A	-de-	1f	ut	0dd	vi-
.	.	1B-y	.	1f	vi-	.	.
=16	=16	=16	=16	=16	=16	=16	=16
0C	-rem	0c	-rem	0e	-de-	2g	-de-
.	.	.	.	.	.	1cc	-rem
.	.	.	.	.	.	4b-y	.
.	.	.	.	.	.	4a	.
=17	=17	=17	=17	=17	=17	=17	=17
1r	.	0B-y	po-	1.d	-rem	2g	.
.	.	.	.	.	.	1a	.
1G	po-	.	.	.	.	.	.
.	.	.	.	2e	.	2g	.
=18	=18	=18	=18	=18	=18	=18	=18
1D	-ma	0A	.	2.f	.	1a	po-
.	.	.	.	4e	.	.	.
1F	.	.	.	4d	.	1f	.
.	.	.	.	4c	.	.	.
.	.	.	.	[2d	.	.	.
=19	=19	=19	=19	=19	=19	=19	=19
0E	.	0G	.	2d]	.	0g	.
.	.	.	.	4c#i	.	.	.
.	.	.	.	4BnXi	.	.	.
.	.	.	.	1c#i	.	.	.
=20	=20	=20	=20	=20	=20	=20	=20
1D	.	0A	-ma	2d	po-	2.f	.
.	.	.	.	2f	.	.	.
.	.	.	.	.	.	4g	.
1AA	.	.	.	2e	-ma	4a	.
.	.	.	.	.	.	4b-y	.
.	.	.	.	4d	.	[2cc	.
.	.	.	.	4c	.	.	.
=21	=21	=21	=21	=21	=21	=21	=21
1r	.	1G	con-	1d	.	2cc]	.
.	.	.	.	.	.	2b-y	.
1C	con-	1A	.	1c	con-	1cc	-ma
=22	=22	=22	=22	=22	=22	=22	=22
1D	.	0F	-val-	2.f	.	1a	con-
.	.	.	.	4e	.	.	.
[1BB-y	-val-	.	.	4d	.	1b-y	.
.	.	.	.	4c	.	.	.
.	.	.	.	[2d	.	.	.
=23	=23	=23	=23	=23	=23	=23	=23
2BB-]	.	0D	-li-	2d]	.	1f	-val-
2AA	.	.	.	2c	-val-	.	.
1GG	.	.	.	[1B-y	.	1g	.
=24	=24	=24	=24	=24	=24	=24	=24
1D	.	0F	.	2B-]	.	1f	-li-
.	.	.	.	4A	.	.	.
.	.	.	.	4G	.	.	.
1D	-li-	.	.	1A	-li-	1ff	.
=25	=25	=25	=25	=25	=25	=25	=25
0BB-y	-um.	0F	-um.	1B-y	-um	2dd	-um
.	.	.	.	.	.	2.ff	.
.	.	.	.	2r	.	.	.
.	.	.	.	.	.	4ee	.
.	.	.	.	2F	et	4dd	.
.	.	.	.	.	.	4cc	.
=26	=26	=26	=26	=26	=26	=26	=26
0r	.	0r	.	1G	in-	1b-y	.
.	.	.	.	1B-y	.	2r	.
.	.	.	.	.	.	2f	et
=27	=27	=27	=27	=27	=27	=27	=27
0r	.	0r	.	1.B-y	-spi-	1g	in-
.	.	.	.	.	.	1b-y	.
.	.	.	.	2B-y	-ce-	.	.
=28	=28	=28	=28	=28	=28	=28	=28
0r	.	0r	.	1B-y	-rem	1.b-y	-spi-
.	.	.	.	1r	.	.	.
.	.	.	.	.	.	2b-y	-ce-
=29	=29	=29	=29	=29	=29	=29	=29
0r	.	0r	.	2r	.	1b-y	-rem
.	.	.	.	2B-y	si	.	.
.	.	.	.	2.B-y	flo-	2r	.
.	.	.	.	.	.	2b-y	si
.	.	.	.	4A	.	.	.
=30	=30	=30	=30	=30	=30	=30	=30
0r	.	0r	.	1G	.	1b-y	flo-
.	.	.	.	4F	-ru-	1a	.
.	.	.	.	4G	.	.	.
.	.	.	.	4A	.	.	.
.	.	.	.	4B-y	.	.	.
=31	=31	=31	=31	=31	=31	=31	=31
0r	.	0r	.	4c	.	1g	-ru-
.	.	.	.	4G	.	.	.
.	.	.	.	2.c	-is-	.	.
.	.	.	.	.	.	1a	-is-
.	.	.	.	4d	.	.	.
.	.	.	.	4e	.	.	.
.	.	.	.	4f	.	.	.
=32	=32	=32	=32	=32	=32	=32	=32
0r	.	0r	.	4g	.	1b-y	-sent
.	.	.	.	4d	.	.	.
.	.	.	.	2g	-sent	.	.
.	.	.	.	2.e	vi-	1cc	vi-
.	.	.	.	4f	.	.	.
=33	=33	=33	=33	=33	=33	=33	=33
0r	.	0r	.	2d	.	2b-y	-ne-
.	.	.	.	2c	.	1a	.
.	.	.	.	1B-y	-ne-	.	.
.	.	.	.	.	.	2g	.
=34	=34	=34	=34	=34	=34	=34	=34
0r	.	0r	.	2A	-ae	1a	-ae
.	.	.	.	2d	et	.	.
.	.	.	.	2.d	ger-	1r	.
.	.	.	.	4e	-mi-	.	.
=35	=35	=35	=35	=35	=35	=35	=35
0r	.	0r	.	2.f	-nas-	2r	.
.	.	.	.	.	.	2a	et
.	.	.	.	4e	.	.	.
.	.	.	.	4d	.	2.a	ger-
.	.	.	.	4c	.	.	.
.	.	.	.	2d	.	.	.
.	.	.	.	.	.	4b-y	-mi-
=36	=36	=36	=36	=36	=36	=36	=36
0r	.	0r	.	1c	-sent	1cc	-nas-
.	.	.	.	2r	.	2.cc	-sent
.	.	.	.	2c	ma-	.	.
.	.	.	.	.	.	4b-y	.
=37	=37	=37	=37	=37	=37	=37	=37
0r	.	0r	.	2d	.	2a	.
.	.	.	.	2e	.	2g	.
.	.	.	.	2f	.	1a	ma-
.	.	.	.	2d	.	.	.
=38	=38	=38	=38	=38	=38	=38	=38
0C	Re-	0r	.	4e	.	1g	-la
.	.	.	.	4f	.	.	.
.	.	.	.	4g	.	.	.
.	.	.	.	4f	.	.	.
.	.	.	.	4e	.	1a	.
.	.	.	.	4d	.	.	.
.	.	.	.	4c	.	.	.
.	.	.	.	4B-y	.	.	.
=39	=39	=39	=39	=39	=39	=39	=39
0C	-ver-	0r	.	2c	.	2g	pu-
.	.	.	.	2A	-la	1f	.
.	.	.	.	2G	pu-	.	.
.	.	.	.	2G	-ni-	2e	-ni-
=40	=40	=40	=40	=40	=40	=40	=40
0D	-te-	0r	.	2.F	-ca.	[0f	-ca.
.	.	.	.	4G	.	.	.
.	.	.	.	2A	.	.	.
.	.	.	.	2B-y	.	.	.
=41	=41	=41	=41	=41	=41	=41	=41
0F	-re;	1c	Re-	2A	.	0f]	.
.	.	.	.	2F	.	.	.
.	.	1c	-ver-	1A	.	.	.
=42	=42	=42	=42	=42	=42	=42	=42
0r	.	1d	-te-	1B-y	.	1r	.
.	.	1f	-re;	1F	.	1cc	Re-
=43	=43	=43	=43	=43	=43	=43	=43
1r	.	1f	re-	1r	.	1cc	-ver-
1F	re-	1f	-ver-	1A	Re-	1dd	-te-
=44	=44	=44	=44	=44	=44	=44	=44
0F	-ver-	1d	-te-	1A	-ver-	0ff	-re;
.	.	[1c	.	1A	-te-	.	.
=45	=45	=45	=45	=45	=45	=45	=45
0D	-te-	2c]	.	1F	-re;	1ff	re-
.	.	4BnXi	.	.	.	.	.
.	.	4A	.	.	.	.	.
.	.	1Bni	.	2r	.	1ff	-ver-
.	.	.	.	2F	re-	.	.
=46	=46	=46	=46	=46	=46	=46	=46
0C	.	0c	-re;	1G	-ver-	2.ee	-te-
.	.	.	.	.	.	4dd	.
.	.	.	.	4A	.	4cc	.
.	.	.	.	4B-y	.	4b-y	.
.	.	.	.	4c	.	2a	.
.	.	.	.	4d	.	.	.
=47	=47	=47	=47	=47	=47	=47	=47
0C	-re,	2r	.	4e	.	2g	.
.	.	.	.	4f	.	.	.
.	.	2c	re-	2.g	.	2.cc	.
.	.	2.c	-ver-	.	.	.	.
.	.	.	.	4f	.	4b-y	.
.	.	.	.	2e	.	4a	.
.	.	4B-y	.	.	.	4g	.
=48	=48	=48	=48	=48	=48	=48	=48
0D	.	4A	.	0d	-te-	2f	.
.	.	4G	.	.	.	.	.
.	.	2B-y	.	.	.	1g	.
.	.	1A	-te-	.	.	.	.
.	.	.	.	.	.	2f#i	.
=49	=49	=49	=49	=49	=49	=49	=49
1r	.	1G	.	1B-y	-re,	2g	.
.	.	.	.	.	.	2d	.
1E	Su-	1G	-re	1c	.	1g	.
=50	=50	=50	=50	=50	=50	=50	=50
2.D	-na-	0r	.	2F	.	1f	-re
.	.	.	.	2A	Su-	.	.
4C	.	.	.	.	.	.	.
2D	.	.	.	2B-y	.	1r	.
[2E	-mi-	.	.	[2G	-na-	.	.
=51	=51	=51	=51	=51	=51	=51	=51
2E]	.	0r	.	2G]	.	0r	.
4D	.	.	.	1c	.	.	.
4C	.	.	.	.	.	.	.
1D	.	.	.	.	.	.	.
.	.	.	.	2BnXi	-mi-	.	.
=52	=52	=52	=52	=52	=52	=52	=52
1C	-tis;	0r	.	2c	-tis;	0r	.
.	.	.	.	2g	re-	.	.
2r	.	.	.	2.g	-ver-	.	.
2c	re-	.	.	.	.	.	.
.	.	.	.	4f	-te-	.	.
=53	=53	=53	=53	=53	=53	=53	=53
2.c	-ver-	0r	.	1e	-re;	0r	.
4B-y	.	.	.	.	.	.	.
1A	.	.	.	2r	.	.	.
.	.	.	.	2e	re-	.	.
=54	=54	=54	=54	=54	=54	=54	=54
2A	-te-	0r	.	2f	-ver-	0r	.
2B-y	-re;	.	.	2.g	.	.	.
1c	re-	.	.	.	.	.	.
.	.	.	.	4f	.	.	.
.	.	.	.	2e	.	.	.
=55	=55	=55	=55	=55	=55	=55	=55
2B-y	-ver-	0r	.	4d	.	0r	.
.	.	.	.	4c	.	.	.
2A	.	.	.	1f	.	.	.
1G	-te-	.	.	.	.	.	.
.	.	.	.	2e	-te-	.	.
=56	=56	=56	=56	=56	=56	=56	=56
1F	-re	0r	.	1f	-re	0r	.
1r	.	.	.	1r	.	.	.
=57	=57	=57	=57	=57	=57	=57	=57
*M3/1	*	*M3/1	*	*	*	*M3/1	*
*met(O)	*	*met(O|)	*	*	*	*met(C|r)	*
*	*	*rscale:2	*	*rscale:2	*	*rscale:4	*
!!primary-mensuration: met(O)
2.F	.	1.F	.	1c	.	4.cc	.
.	.	.	.	.	.	8b-y	.
=-	=-	=-	=-	=-	=-	=	=-
.	.	.	.	.	.	4a	.
4E	.	.	.	.	.	4g	.
=-	=-	=-	=-	=	=-	=	=-
4D	.	.	.	1d	.	2f	.
4C	.	.	.	.	.	.	.
=-	=-	=	=-	=-	=-	=	=-
2BB-y	.	1.G	.	.	.	2b-y	.
=-	=-	=-	=-	=	=-	=	=-
2.C	.	.	.	1e	.	2g	.
=-	=-	=-	=-	=-	=-	=	=-
.	.	.	.	.	.	2cc	.
8DL	.	.	.	.	.	.	.
8EJ	.	.	.	.	.	.	.
=58	=58	=58	=58	=58	=58	=58	=58
2F	.	1.A	.	1d	.	2a/[	.
=-	=-	=-	=-	=	=-	=	=-
2D	.	.	.	.	.	4a]	.
.	.	.	.	.	.	4b-y	.
=-	=-	=-	=-	=	=-	=	=-
1C	.	.	.	1e	.	2cc	.
=-	=-	=	=-	=-	=-	=	=-
.	.	1.G	.	.	.	4r	.
.	.	.	.	.	.	4cc	.
=-	=-	=-	=-	=	=-	=	=-
1BB-y	.	.	.	1d	.	4dd	.
.	.	.	.	.	.	4b-y	.
=-	=-	=-	=-	=-	=-	=	=-
.	.	.	.	.	.	4.dd	.
.	.	.	.	.	.	8ee	.
=59	=59	=59	=59	=59	=59	=59	=59
2AA	.	1.A	.	[0.cl	.	4ff	.
.	.	.	.	.	.	4ee	.
=-	=-	=-	=-	=-	=-	=	=-
2.AA	.	.	.	.	.	4.cc	.
.	.	.	.	.	.	8b-y	.
=-	=-	=-	=-	=-	=-	=	=-
.	.	.	.	.	.	4.a	.
4BB-y	.	.	.	.	.	.	.
.	.	.	.	.	.	16g	.
.	.	.	.	.	.	16f	.
=-	=-	=	=-	=-	=-	=	=-
1.C	.	1.G	.	.	.	4e	.
.	.	.	.	.	.	4g[	.
=-	=-	=-	=-	=-	=-	=	=-
.	.	.	.	.	.	4g]	.
.	.	.	.	.	.	4f[	.
=-	=-	=-	=-	=-	=-	=	=-
.	.	.	.	.	.	4f]	.
.	.	.	.	.	.	4e	.
=60	=60	=60	=60	=60	=60	=60	=60
00Fl	.	00Fl	.	00c]	.	00fl	.
==	==	==	==	==	==	==	==
*-	*-	*-	*-	*-	*-	*-	*-
!!!system-decoration: [*]
!!!RDF**kern: i = editorial accidental
!!!RDF**kern: l = terminal long
!!!PTL: <i> New Senfl Edition: Motets for Four Voices (A-I) </i>
!!!PPR: Hollitzer Verlag
!!!PC#: Denkmäler der Tonkunst in Österreich 163.1
!!!PDT: 2021
!!!PED: Scott Lee Edwards, Stefan Gasch, and Sonja Tröster
!!!YEC: Copyright 2021 Denkmäler der Tonkunst in Österreich
!!!YEM: CC-BY-NC 4.0 (https://creativecommons.org/licenses/by-nc/4.0/legalcode)
!!!EED: Benjamin Ory
!!!EEV: 2024/4/13
!!!verovio: header encoded
!!!header-left: @{PTL}\n@{PED}, eds.\n@{PC#} (@{PDT})&nbsp;\n
!!!header-right:
!!!header-center:
